src/assets/images/bulb.svg

<svg width="412" height="512" viewBox="0 0 412 512" fill="none" xmlns="http://www.w3.org/2000/svg">
    <path fill-rule="evenodd" clip-rule="evenodd" d="M219.452 405.54L224 414.272L278.847 405.653L278.722 405.152L272.642 400.592L219.452 405.54ZM281.923 378.67L185.998 341.31L216.349 399.583L269.602 394.512L281.923 378.67Z" fill="#6243B1"/>
    <path fill-rule="evenodd" clip-rule="evenodd" d="M185.998 341.31L304.563 294.188L281.94 378.648L281.504 379.209L185.998 341.31Z" fill="#6BA79D"/>
    <path d="M318.244 300.268L304.563 294.188L286.322 362.59L318.244 300.268Z" fill="#47B5AA"/>
    <path d="M338.004 275.947L304.563 294.188L318.244 300.268L338.004 275.947Z" fill="#60CF84"/>
    <path d="M369.926 199.944L338.004 275.947L304.563 294.188L369.926 199.944Z" fill="#58C15C"/>
    <path d="M347.125 157.382L304.563 294.188L369.926 199.944L347.125 157.382Z" fill="#59C15C"/>
    <path d="M360.805 120.901L347.125 157.382L369.926 199.944L360.805 120.901Z" fill="#38B475"/>
    <path d="M330.404 72.259L360.805 120.901L345.605 161.942L330.404 72.259Z" fill="#5DAF38"/>
    <path d="M313.683 90.4997L330.404 72.259L345.605 161.942L313.683 90.4997Z" fill="#5AAE35"/>
    <path d="M290.882 38.8177L330.404 72.259L313.683 90.4997L290.882 38.8177Z" fill="#83BF44"/>
    <path d="M224 111.781L290.882 38.8177L310.643 82.8994L224 111.781Z" fill="#CCCD1B"/>
    <path d="M219.44 78.3392L290.882 38.8177L224 111.781L219.44 78.3392Z" fill="#B3C418"/>
    <path d="M210.319 14.4967L290.882 38.8176L219.44 78.3392L210.319 14.4967Z" fill="#B7BE13"/>
    <path d="M135.836 31.2173L210.319 14.4967L157.117 75.2991L135.836 31.2173Z" fill="#D8C718"/>
    <path d="M224 111.781L157.117 75.2991L210.319 14.4967L224 111.781Z" fill="#E5D211"/>
    <path d="M266.562 160.422L310.643 82.8994L345.605 161.942L266.562 160.422Z" fill="#B2D129"/>
    <path d="M266.562 160.422L224 111.781L310.643 82.8994L266.562 160.422Z" fill="#D1CF18"/>
    <path d="M260.481 236.425L266.562 160.422L345.605 161.942L260.481 236.425Z" fill="#C4D31E"/>
    <path d="M304.563 294.188L260.481 236.425L345.605 161.942L304.563 294.188Z" fill="#9CD030"/>
    <path d="M185.998 341.31L260.481 236.425L304.563 294.188L185.998 341.31Z" fill="#DBBC3A"/>
    <path d="M170.798 245.546L185.998 341.31L260.481 236.425L170.798 245.546Z" fill="#F67918"/>
    <path fill-rule="evenodd" clip-rule="evenodd" d="M133.175 402.699L139.95 405.778L216.4 399.072L185.998 341.31L133.175 402.699Z" fill="#C9238D"/>
    <path fill-rule="evenodd" clip-rule="evenodd" d="M128.986 400.795L113.035 278.987L185.998 341.31L133.175 402.699L128.986 400.795Z" fill="#E9283C"/>
    <path d="M170.798 245.546L113.035 278.987L185.998 341.31L170.798 245.546Z" fill="#F44523"/>
    <path d="M90.2346 297.228L120.636 335.229L113.035 278.987L90.2346 297.228Z" fill="#E62639"/>
    <path d="M55.2732 245.546L90.2346 297.228L113.035 278.987L55.2732 245.546Z" fill="#F0400F"/>
    <path d="M105.435 204.504L55.2732 245.546L113.035 278.987L105.435 204.504Z" fill="#F56206"/>
    <path d="M113.035 278.987L105.435 204.504L170.798 245.546L113.035 278.987Z" fill="#F66B03"/>
    <path d="M143.437 163.463L105.435 204.504L170.798 245.546L143.437 163.463Z" fill="#FB8804"/>
    <path d="M40.0726 175.623L55.2732 245.546L105.435 204.504L40.0726 175.623Z" fill="#F67900"/>
    <path d="M70.4738 120.901L40.0726 175.623L105.435 204.504L70.4738 120.901Z" fill="#F69A07"/>
    <path d="M143.437 163.463L70.4738 120.901L105.435 204.504L143.437 163.463Z" fill="#F9BF12"/>
    <path d="M55.2732 113.301L40.0726 175.623L70.4738 120.901L55.2732 113.301Z" fill="#FBC475"/>
    <path d="M93.2747 61.6185L55.2732 113.301L71.9939 122.421L93.2747 61.6185Z" fill="#EEAB0E"/>
    <path d="M157.117 75.2991L71.9939 122.421L143.437 163.463L157.117 75.2991Z" fill="#EDB719"/>
    <path d="M93.2747 61.6186L71.9939 122.421L135.836 31.2174L93.2747 61.6186Z" fill="#EBCA17"/>
    <path d="M135.836 31.2174L71.9939 122.421L157.117 75.2991L135.836 31.2174Z" fill="#E9CE1C"/>
    <path d="M224 111.781L143.437 163.463L157.117 75.2991L224 111.781Z" fill="#F4DF1B"/>
    <path d="M266.562 160.422L143.437 163.463L224 111.781L266.562 160.422Z" fill="#F3E82F"/>
    <path d="M266.562 160.422L170.798 245.546L143.437 163.463L266.562 160.422Z" fill="#F7B110"/>
    <path d="M260.481 236.425L266.561 160.422L170.798 245.546L260.481 236.425Z" fill="#F5CD11"/>
    <path fill-rule="evenodd" clip-rule="evenodd" d="M222.206 427.907L224 414.272L207.429 429.314L222.206 427.907ZM173.752 459.882L199.787 436.25L221.372 434.242L218.56 455.615L173.752 459.882ZM143.816 487.054L166.17 466.764L217.717 462.024L215.319 480.245L143.816 487.054ZM214.394 487.276L211.633 508.258L155.37 509.758L141.917 493.315L214.394 487.276Z" fill="#754DBE"/>
    <path fill-rule="evenodd" clip-rule="evenodd" d="M188.538 431.113L210.012 406.418L141.917 412.752L132.796 423.393L135.196 432.193L141.917 435.553L188.538 431.113ZM156.786 467.627L140.354 486.525L137.629 485.286L135.836 478.115L141.917 468.994L156.786 467.627ZM182.687 437.841L162.597 460.945L141.917 462.914L135.142 459.835L134.316 450.754L141.917 441.633L182.687 437.841ZM139.95 405.778L216.4 399.072L215.919 399.624L141.917 406.672L139.95 405.778Z" fill="#B21C87"/>
    <path fill-rule="evenodd" clip-rule="evenodd" d="M207.429 429.314L224 414.272L219.625 405.524L210.012 406.418L188.538 431.113L207.429 429.314ZM162.597 460.945L182.687 437.841L199.787 436.25L173.752 459.882L162.597 460.945ZM140.354 486.525L156.786 467.627L166.17 466.764L143.816 487.054L141.917 487.235L140.354 486.525ZM216.641 399.555L216.4 399.072L215.919 399.624L216.641 399.555Z" fill="#9F218E"/>
    <path fill-rule="evenodd" clip-rule="evenodd" d="M278.817 405.533L224 414.272L222.206 427.907L269.602 423.393L279.461 417.477L280.242 411.232L278.817 405.533ZM218.56 455.615L221.372 434.242L272.642 429.473L278.722 435.553L280.242 443.153L280.09 443.914L269.602 450.754L218.56 455.615ZM215.319 480.244L217.717 462.024L274.162 456.834L278.722 462.914L277.859 469.82L269.602 475.075L215.319 480.244ZM211.633 508.258L214.394 487.276L269.602 482.675L270.209 488.138L257.977 507.022L211.633 508.258Z" fill="#5F41AD"/>
    <path d="M71.8673 306.763L61.9154 325.388L81.3299 313.432L71.8673 306.763Z" fill="#FEDD4E"/>
    <path d="M44.6764 267.845L28.6142 281.554L51.053 277.507L44.6764 267.845Z" fill="#FEDD4E"/>
    <path d="M28.8206 223.558L9.50581 232.095L32.1641 234.641L28.8206 223.558Z" fill="#FEDD4E"/>
    <path d="M20.1047 172.943L4.259e-06 179.404L22.2655 184.316L20.1047 172.943Z" fill="#FEDD4E"/>
    <path d="M30.0645 127.936L9.10663 125.346L27.2435 139.164L30.0645 127.936Z" fill="#FEDD4E"/>
    <path d="M49.1601 84.8852L29.8468 76.3447L43.2128 94.8172L49.1601 84.8852Z" fill="#FEDD4E"/>
    <path d="M79.3927 47.1976L61.9853 35.2426L71.7162 55.8627L79.3927 47.1976Z" fill="#FEDD4E"/>
    <path d="M120.226 18.0961L107.378 1.33697L110.243 23.9572L120.226 18.0961Z" fill="#FEDD4E"/>
    <path d="M339.814 306.763L349.766 325.388L330.351 313.432L339.814 306.763Z" fill="#FEDD4E"/>
    <path d="M367.005 267.845L383.067 281.554L360.628 277.507L367.005 267.845Z" fill="#FEDD4E"/>
    <path d="M382.861 223.558L402.175 232.095L379.517 234.641L382.861 223.558Z" fill="#FEDD4E"/>
    <path d="M391.577 172.943L411.681 179.404L389.416 184.316L391.577 172.943Z" fill="#FEDD4E"/>
    <path d="M381.617 127.936L402.575 125.346L384.438 139.164L381.617 127.936Z" fill="#FEDD4E"/>
    <path d="M362.521 84.8852L381.835 76.3447L368.469 94.8172L362.521 84.8852Z" fill="#FEDD4E"/>
    <path d="M332.289 47.1976L349.696 35.2426L339.965 55.8627L332.289 47.1976Z" fill="#FEDD4E"/>
    <path d="M291.455 18.0961L304.303 1.33697L301.439 23.9572L291.455 18.0961Z" fill="#FEDD4E"/>
</svg>

<?xml version="1.0" encoding="UTF-8" standalone="no"?>
<svg width="412" xmlns="http://www.w3.org/2000/svg" viewBox="0 0 412 512" height="512">
 <path fill="#6243B1" clip-rule="evenodd" d="m219.45 405.54l4.55 8.73 54.85-8.62-0.13-0.5-6.08-4.56-53.19 4.95zm62.47-26.87l-95.92-37.36 30.35 58.27 53.25-5.07 12.32-15.84z" fill-rule="evenodd"/>
 <path fill="#6BA79D" clip-rule="evenodd" d="m186 341.31l118.56-47.12-22.62 84.46-0.44 0.56-95.5-37.9z" fill-rule="evenodd"/>
 <path d="m318.24 300.27l-13.68-6.08-18.24 68.4 31.92-62.32z" fill="#47B5AA"/>
 <path d="m338 275.95l-33.44 18.24 13.68 6.08 19.76-24.32z" fill="#60CF84"/>
 <path d="m369.93 199.94l-31.93 76.01-33.44 18.24 65.37-94.25z" fill="#58C15C"/>
 <path d="m347.12 157.38l-42.56 136.81 65.37-94.25-22.81-42.56z" fill="#59C15C"/>
 <path d="m360.8 120.9l-13.68 36.48 22.81 42.56-9.13-79.04z" fill="#38B475"/>
 <path d="m330.4 72.259l30.4 48.641-15.2 41.04-15.2-89.681z" fill="#5DAF38"/>
 <path d="m313.68 90.5l16.72-18.241 15.2 89.681-31.92-71.44z" fill="#5AAE35"/>
 <path d="m290.88 38.818l39.52 33.441-16.72 18.241-22.8-51.682z" fill="#83BF44"/>
 <path d="m224 111.78l66.88-72.962 19.76 44.081-86.64 28.881z" fill="#CCCD1B"/>
 <path d="m219.44 78.339l71.44-39.521-66.88 72.962-4.56-33.441z" fill="#B3C418"/>
 <path d="m210.32 14.497l80.56 24.321-71.44 39.521-9.12-63.842z" fill="#B7BE13"/>
 <path d="m135.84 31.217l74.48-16.72-53.2 60.802-21.28-44.082z" fill="#D8C718"/>
 <path d="m224 111.78l-66.88-36.481 53.2-60.802 13.68 97.283z" fill="#E5D211"/>
 <path d="m266.56 160.42l44.08-77.521 34.96 79.041-79.04-1.52z" fill="#B2D129"/>
 <path d="m266.56 160.42l-42.56-48.64 86.64-28.881-44.08 77.521z" fill="#D1CF18"/>
 <path d="m260.48 236.42l6.08-76 79.04 1.52-85.12 74.48z" fill="#C4D31E"/>
 <path d="m304.56 294.19l-44.08-57.77 85.12-74.48-41.04 132.25z" fill="#9CD030"/>
 <path d="m186 341.31l74.48-104.89 44.08 57.77-118.56 47.12z" fill="#DBBC3A"/>
 <path d="m170.8 245.55l15.2 95.76 74.48-104.89-89.68 9.13z" fill="#F67918"/>
 <path fill="#C9238D" clip-rule="evenodd" d="m133.18 402.7l6.77 3.08 76.45-6.71-30.4-57.76-52.82 61.39z" fill-rule="evenodd"/>
 <path fill="#E9283C" clip-rule="evenodd" d="m128.99 400.8l-15.95-121.81 72.96 62.32-52.82 61.39-4.19-1.9z" fill-rule="evenodd"/>
 <path d="m170.8 245.55l-57.76 33.44 72.96 62.32-15.2-95.76z" fill="#F44523"/>
 <path d="m90.235 297.23l30.405 38-7.6-56.24-22.805 18.24z" fill="#E62639"/>
 <path d="m55.273 245.55l34.962 51.68 22.805-18.24-57.767-33.44z" fill="#F0400F"/>
 <path d="m105.44 204.5l-50.167 41.05 57.767 33.44-7.6-74.49z" fill="#F56206"/>
 <path d="m113.04 278.99l-7.6-74.49 65.36 41.05-57.76 33.44z" fill="#F66B03"/>
 <path d="m143.44 163.46l-38 41.04 65.36 41.05-27.36-82.09z" fill="#FB8804"/>
 <path d="m40.073 175.62l15.2 69.93 50.167-41.05-65.367-28.88z" fill="#F67900"/>
 <path d="m70.474 120.9l-30.401 54.72 65.367 28.88-34.966-83.6z" fill="#F69A07"/>
 <path d="m143.44 163.46l-72.966-42.56 34.966 83.6 38-41.04z" fill="#F9BF12"/>
 <path d="m55.273 113.3l-15.2 62.32 30.401-54.72-15.201-7.6z" fill="#FBC475"/>
 <path d="m93.275 61.618l-38.002 51.682 16.721 9.12 21.281-60.802z" fill="#EEAB0E"/>
 <path d="m157.12 75.299l-85.126 47.121 71.446 41.04 13.68-88.161z" fill="#EDB719"/>
 <path d="m93.275 61.619l-21.281 60.801 63.846-91.203-42.565 30.402z" fill="#EBCA17"/>
 <path d="m135.84 31.217l-63.846 91.203 85.126-47.121-21.28-44.082z" fill="#E9CE1C"/>
 <path d="m224 111.78l-80.56 51.68 13.68-88.161 66.88 36.481z" fill="#F4DF1B"/>
 <path d="m266.56 160.42l-123.12 3.04 80.56-51.68 42.56 48.64z" fill="#F3E82F"/>
 <path d="m266.56 160.42l-95.76 85.13-27.36-82.09 123.12-3.04z" fill="#F7B110"/>
 <path d="m260.48 236.42l6.08-76-95.76 85.13 89.68-9.13z" fill="#F5CD11"/>
 <path fill="#754DBE" clip-rule="evenodd" d="m222.21 427.91l1.79-13.64-16.57 15.04 14.78-1.4zm-48.46 31.97l26.04-23.63 21.58-2.01-2.81 21.38-44.81 4.26zm-29.93 27.17l22.35-20.29 51.55-4.74-2.4 18.22-71.5 6.81zm70.57 0.23l-2.76 20.98-56.26 1.5-13.45-16.44 72.47-6.04z" fill-rule="evenodd"/>
 <path fill="#B21C87" clip-rule="evenodd" d="m188.54 431.11l21.47-24.69-68.09 6.33-9.12 10.64 2.4 8.8 6.72 3.36 46.62-4.44zm-31.75 36.52l-16.44 18.89-2.72-1.23-1.79-7.17 6.08-9.13 14.87-1.36zm25.9-29.79l-20.09 23.1-20.68 1.97-6.78-3.07-0.82-9.09 7.6-9.12 40.77-3.79zm-42.74-32.06l76.45-6.71-0.48 0.55-74 7.05-1.97-0.89z" fill-rule="evenodd"/>
 <path fill="#9F218E" clip-rule="evenodd" d="m207.43 429.31l16.57-15.04-4.38-8.75-9.61 0.9-21.47 24.69 18.89-1.8zm-44.83 31.63l20.09-23.1 17.1-1.59-26.04 23.63-11.15 1.06zm-22.25 25.58l16.44-18.89 9.38-0.87-22.35 20.29-1.9 0.19-1.57-0.72zm76.29-86.96l-0.24-0.49-0.48 0.55 0.72-0.06z" fill-rule="evenodd"/>
 <path fill="#5F41AD" clip-rule="evenodd" d="m278.82 405.53l-54.82 8.74-1.79 13.64 47.39-4.52 9.86-5.91 0.78-6.25-1.42-5.7zm-60.26 50.09l2.81-21.38 51.27-4.77 6.08 6.08 1.52 7.6-0.15 0.76-10.49 6.84-51.04 4.87zm-3.24 24.62l2.4-18.22 56.44-5.19 4.56 6.08-0.86 6.91-8.26 5.26-54.28 5.16zm-3.69 28.02l2.76-20.98 55.21-4.6 0.61 5.46-12.23 18.88-46.35 1.24z" fill-rule="evenodd"/>
 <path d="m71.867 306.76l-9.952 18.63 19.415-11.96-9.463-6.67z" fill="#FEDD4E"/>
 <path d="m44.676 267.84l-16.062 13.71 22.439-4.04-6.377-9.67z" fill="#FEDD4E"/>
 <path d="m28.821 223.56l-19.315 8.54 22.658 2.54-3.343-11.08z" fill="#FEDD4E"/>
 <path d="m20.105 172.94l-20.105 6.46 22.266 4.92-2.161-11.38z" fill="#FEDD4E"/>
 <path d="m30.064 127.94l-20.957-2.59 18.137 13.81 2.82-11.22z" fill="#FEDD4E"/>
 <path d="m49.16 84.885l-19.313-8.54 13.366 18.472 5.947-9.932z" fill="#FEDD4E"/>
 <path d="m79.393 47.198l-17.408-11.955 9.731 20.62 7.677-8.665z" fill="#FEDD4E"/>
 <path d="m120.23 18.096l-12.85-16.759 2.86 22.62 9.99-5.861z" fill="#FEDD4E"/>
 <path d="m339.81 306.76l9.96 18.63-19.42-11.96 9.46-6.67z" fill="#FEDD4E"/>
 <path d="m367 267.84l16.07 13.71-22.44-4.04 6.37-9.67z" fill="#FEDD4E"/>
 <path d="m382.86 223.56l19.32 8.54-22.66 2.54 3.34-11.08z" fill="#FEDD4E"/>
 <path d="m391.58 172.94l20.1 6.46-22.26 4.92 2.16-11.38z" fill="#FEDD4E"/>
 <path d="m381.62 127.94l20.96-2.59-18.14 13.81-2.82-11.22z" fill="#FEDD4E"/>
 <path d="m362.52 84.885l19.32-8.54-13.37 18.472-5.95-9.932z" fill="#FEDD4E"/>
 <path d="m332.29 47.198l17.41-11.955-9.74 20.62-7.67-8.665z" fill="#FEDD4E"/>
 <path d="m291.46 18.096l12.84-16.759-2.86 22.62-9.98-5.861z" fill="#FEDD4E"/>
</svg>
